src/Resource_Files/fluent/plugin_10pips.svg

<svg clip-rule="evenodd" fill-rule="evenodd" stroke-linecap="round" stroke-linejoin="round" viewBox="0 0 16 16" xmlns="http://www.w3.org/2000/svg"><path d="m45 17.388c0-1.513-.932-2.115-2.051-2.448 0 0-7.561.748-10.251 1.061-2.122.246-3.235-1.375-1.565-4.035 1.115-1.777 1.565-2.438 1.565-3.965 0-3.314-2.753-6-6.15-6-3.398 0-6.151 2.686-6.151 6 0 1.504.522 2.533 1.538 3.969 1.922 2.719.769 4.188-1.538 4.031-2.525-.171-10.251-1.061-10.251-1.061-1.346-.221-1.89.904-2.05 2.385 0 0-.417 1.713-1.069 10.383-.052.199-.005.422.012.512.353 1.812 2.23.688 4.169-.688 1.248-.886 2.556-1.532 4.1-1.532 3.398 0 6.151 2.686 6.151 6s-2.753 6-6.151 6c-1.633 0-2.764-.508-4.209-1.645-1.446-1.137-3.42-2.387-3.997-.98-.102.25-.128.75-.076 1.072.599 6.24.836 6.537 1.069 7.553s.918 2 2.05 2h32.035c1.827 0 2.82-1.094 2.82-2.75z" fill="none" stroke="#36556f" stroke-width="3.14" transform="matrix(.295461 0 0 .295461 .204243 .908782)"/></svg>

<?xml version="1.0" encoding="UTF-8" standalone="no"?>
<!DOCTYPE svg PUBLIC "-//W3C//DTD SVG 1.1//EN" "http://www.w3.org/Graphics/SVG/1.1/DTD/svg11.dtd">
<svg width="100%" height="100%" viewBox="0 0 16 16" version="1.1" xmlns="http://www.w3.org/2000/svg" xmlns:xlink="http://www.w3.org/1999/xlink" xml:space="preserve" xmlns:serif="http://www.serif.com/" style="fill-rule:evenodd;clip-rule:evenodd;stroke-linecap:round;stroke-linejoin:round;">
    <g transform="matrix(0.295461,0,0,0.295461,0.204243,0.908782)">
        <path d="M45,17.388C45,15.875 44.068,15.273 42.949,14.94C42.949,14.94 35.388,15.688 32.698,16.001C30.576,16.247 29.463,14.626 31.133,11.966C32.248,10.189 32.698,9.528 32.698,8.001C32.698,4.687 29.945,2.001 26.548,2.001C23.15,2.001 20.397,4.687 20.397,8.001C20.397,9.505 20.919,10.534 21.935,11.97C23.857,14.689 22.704,16.158 20.397,16.001C17.872,15.83 10.146,14.94 10.146,14.94C8.8,14.719 8.256,15.844 8.096,17.325C8.096,17.325 7.679,19.038 7.027,27.708C6.975,27.907 7.022,28.13 7.039,28.22C7.392,30.032 9.269,28.908 11.208,27.532C12.456,26.646 13.764,26 15.308,26C18.706,26 21.459,28.686 21.459,32C21.459,35.314 18.706,38 15.308,38C13.675,38 12.544,37.492 11.099,36.355C9.653,35.218 7.679,33.968 7.102,35.375C7,35.625 6.974,36.125 7.026,36.447C7.625,42.687 7.862,42.984 8.095,44C8.328,45.016 9.013,46 10.145,46L42.18,46C44.007,46 45,44.906 45,43.25L45,17.388Z" style="fill:none;fill-rule:nonzero;stroke:rgb(54,85,111);stroke-width:3.14px;"/>
    </g>
</svg>
